format-color-highlight.svg

<svg fill="currentColor" viewBox="0 0 24 24"><path d="m4 17 2.75-2.75-.03-.02c-.58-.59-.58-1.54 0-2.12l4.74-4.74 4.24 4.24-4.74 4.74c-.57.58-1.5.58-2.09.02l-.63.63zM15.91 2.91c.59-.58 1.54-.58 2.12 0l2.13 2.12c.58.59.58 1.54 0 2.13l-3.3 3.29-4.24-4.24z"/></svg>

<svg  viewBox="0 0 24 24" fill="currentColor"><path  d="M4,17L6.75,14.25L6.72,14.23C6.14,13.64 6.14,12.69 6.72,12.11L11.46,7.37L15.7,11.61L10.96,16.35C10.39,16.93 9.46,16.93 8.87,16.37L8.24,17H4M15.91,2.91C16.5,2.33 17.45,2.33 18.03,2.91L20.16,5.03C20.74,5.62 20.74,6.57 20.16,7.16L16.86,10.45L12.62,6.21L15.91,2.91Z"/></svg>
